src/pos-icons/text-search.svg

<svg height="24" viewBox="0 0 24 24" width="24" xmlns="http://www.w3.org/2000/svg"><path d="m19.31 18.9 3.08 3.1-1.39 1.39-3.12-3.07c-.69.43-1.51.68-2.38.68-2.5 0-4.5-2-4.5-4.5s2-4.5 4.5-4.5 4.5 2 4.5 4.5c0 .88-.25 1.71-.69 2.4m-3.81.1c1.38 0 2.5-1.12 2.5-2.5s-1.12-2.5-2.5-2.5-2.5 1.12-2.5 2.5 1.12 2.5 2.5 2.5m5.5-15v2h-18v-2zm-18 12v-2h6v2zm0-5v-2h18v2h-2.03c-1.01-.63-2.2-1-3.47-1s-2.46.37-3.47 1z"/></svg>

<?xml version="1.0" encoding="UTF-8"?><!DOCTYPE svg PUBLIC "-//W3C//DTD SVG 1.1//EN" "http://www.w3.org/Graphics/SVG/1.1/DTD/svg11.dtd"><svg xmlns="http://www.w3.org/2000/svg" xmlns:xlink="http://www.w3.org/1999/xlink" version="1.1" id="mdi-text-search" width="24" height="24" viewBox="0 0 24 24"><path d="M19.31 18.9L22.39 22L21 23.39L17.88 20.32C17.19 20.75 16.37 21 15.5 21C13 21 11 19 11 16.5C11 14 13 12 15.5 12C18 12 20 14 20 16.5C20 17.38 19.75 18.21 19.31 18.9M15.5 19C16.88 19 18 17.88 18 16.5C18 15.12 16.88 14 15.5 14C14.12 14 13 15.12 13 16.5C13 17.88 14.12 19 15.5 19M21 4V6H3V4H21M3 16V14H9V16H3M3 11V9H21V11H18.97C17.96 10.37 16.77 10 15.5 10C14.23 10 13.04 10.37 12.03 11H3Z" /></svg>
